src/assets/icons/aerolab-logo-1.svg

<svg width="126" height="48" viewBox="0 0 126 48" fill="none" xmlns="http://www.w3.org/2000/svg">
<path d="M75.3011 26.3926C71.5788 26.3926 68.5508 29.3821 68.5508 33.0565C68.5508 36.7309 71.5788 39.7204 75.3011 39.7204C79.0233 39.7204 82.0514 36.7309 82.0514 33.0565C82.0514 29.3821 79.0233 26.3926 75.3011 26.3926ZM75.3011 37.4991C72.8198 37.4991 70.8008 35.5062 70.8008 33.0565C70.8008 30.6067 72.8196 28.6138 75.3011 28.6138C77.7826 28.6138 79.8014 30.6067 79.8014 33.0565C79.8014 35.5062 77.7824 37.4991 75.3011 37.4991Z" fill="url(#paint0_linear_497_3833)"/>
<path d="M86.5518 19.3076H84.3018V39.253H86.5518V19.3076Z" fill="url(#paint1_linear_497_3833)"/>
<path d="M67.4258 26.3418C65.6982 26.3418 64.1209 26.9865 62.9258 28.044V26.6201C62.9256 26.6199 62.9253 26.6196 62.9251 26.6194H60.6765C60.6763 26.6196 60.676 26.6199 60.6758 26.6201V39.2532H62.9258V33.0057C62.9258 30.556 64.9446 28.563 67.4261 28.563C67.4261 28.5633 67.4261 26.3448 67.4258 26.3418Z" fill="url(#paint2_linear_497_3833)"/>
<path d="M45.4756 33.0567C45.4756 29.3118 48.3794 26.3936 52.042 26.3936C55.7046 26.3936 58.3731 29.002 58.4254 33.5991H47.804C48.0134 35.8977 49.8185 37.6279 52.1991 37.6279C53.8472 37.6279 55.1815 36.9047 56.0187 36.0785L57.4575 37.6279C56.3328 38.7902 54.4752 39.7199 52.1991 39.7199C48.327 39.7199 45.4756 36.7758 45.4756 33.0567ZM47.9086 31.6622H55.8878C55.5737 29.5445 53.8996 28.4082 51.9113 28.4339C50.0014 28.4339 48.3796 29.6995 47.9086 31.6622Z" fill="url(#paint3_linear_497_3833)"/>
<path d="M99.7709 26.6702V27.86C98.6144 26.9431 97.1474 26.3926 95.5521 26.3926C91.8298 26.3926 88.8018 29.3821 88.8018 33.0565C88.8018 36.7309 91.8298 39.7204 95.5521 39.7204C97.1474 39.7204 98.6144 39.1699 99.7709 38.253V39.2537H102.021V34.9571V31.1558V26.6702H99.7709ZM99.7709 34.5877C99.137 36.2839 97.4877 37.4989 95.5521 37.4989C93.0708 37.4989 91.0518 35.506 91.0518 33.0562C91.0518 30.6065 93.0705 28.6136 95.5521 28.6136C97.4877 28.6136 99.137 29.8286 99.7709 31.525C99.9496 32.0033 100.052 32.5176 100.052 33.0562C100.052 33.5953 99.9496 34.1096 99.7709 34.5877Z" fill="url(#paint4_linear_497_3833)"/>
<path d="M40.975 26.6702V27.86C39.8185 26.9431 38.3515 26.3926 36.7562 26.3926C33.0339 26.3926 30.0059 29.3821 30.0059 33.0565C30.0059 36.7309 33.0339 39.7204 36.7562 39.7204C38.3515 39.7204 39.8185 39.1699 40.975 38.253V39.2537H43.225V34.9571V31.1558V26.6702H40.975ZM40.975 34.5877C40.3411 36.2839 38.6919 37.4989 36.7562 37.4989C34.2749 37.4989 32.2559 35.506 32.2559 33.0562C32.2559 30.6065 34.2747 28.6136 36.7562 28.6136C38.6919 28.6136 40.3411 29.8286 40.975 31.525C41.1537 32.0033 41.2562 32.5176 41.2562 33.0562C41.2564 33.5953 41.1537 34.1096 40.975 34.5877Z" fill="url(#paint5_linear_497_3833)"/>
<path d="M105.396 19.3076V31.1554V34.9566V39.2533H107.647V38.2525C108.803 39.1694 110.27 39.7199 111.865 39.7199C115.588 39.7199 118.616 36.7304 118.616 33.056C118.616 29.3814 115.588 26.3921 111.865 26.3921C110.27 26.3921 108.803 26.9426 107.647 27.8595V19.3079H105.396V19.3076V19.3076ZM107.365 33.056C107.365 32.5172 107.468 32.0029 107.647 31.5248C108.28 29.8284 109.93 28.6133 111.865 28.6133C114.347 28.6133 116.366 30.6063 116.366 33.056C116.366 35.5058 114.347 37.4987 111.865 37.4987C109.93 37.4987 108.28 36.2836 107.647 34.5875C107.468 34.1091 107.365 33.5948 107.365 33.056Z" fill="url(#paint6_linear_497_3833)"/>
<path d="M33.7506 15.0241L27.2843 3.96755C27.2379 3.88834 27.1354 3.86124 27.0552 3.90704L15.8553 10.2905C15.7928 10.3263 15.7604 10.3973 15.7748 10.4672L19.4059 27.9846L18.8743 28.5765C17.982 29.5698 17.2265 30.1079 15.79 30.1079C14.1793 30.1079 13.423 29.2697 12.2256 27.7881C10.8146 26.0426 9.06334 23.8761 4.86106 23.8186C4.76756 23.8174 4.68945 23.8931 4.68945 23.9854V25.7638C4.68945 25.8543 4.76449 25.9269 4.85609 25.9283C8.02969 25.9795 9.25695 27.4979 10.5552 29.1038C11.7349 30.5633 13.072 32.2174 15.79 32.2174C18.1366 32.2174 19.4275 31.1402 20.4732 29.9761L24.3304 25.6821L24.3306 25.6818L33.7307 15.2169C33.7788 15.1634 33.7866 15.0858 33.7506 15.0241Z" fill="url(#paint7_linear_497_3833)"/>
<defs>
<linearGradient id="paint0_linear_497_3833" x1="75.3011" y1="26.3926" x2="75.3011" y2="39.7204" gradientUnits="userSpaceOnUse">
<stop stop-color="#FF8800"/>
<stop offset="1" stop-color="#FF6600"/>
</linearGradient>
<linearGradient id="paint1_linear_497_3833" x1="85.4268" y1="19.3076" x2="85.4268" y2="39.253" gradientUnits="userSpaceOnUse">
<stop stop-color="#FF8800"/>
<stop offset="1" stop-color="#FF6600"/>
</linearGradient>
<linearGradient id="paint2_linear_497_3833" x1="64.0509" y1="26.3418" x2="64.0509" y2="39.2532" gradientUnits="userSpaceOnUse">
<stop stop-color="#FF8800"/>
<stop offset="1" stop-color="#FF6600"/>
</linearGradient>
<linearGradient id="paint3_linear_497_3833" x1="51.9505" y1="26.3936" x2="51.9505" y2="39.7199" gradientUnits="userSpaceOnUse">
<stop stop-color="#FF8800"/>
<stop offset="1" stop-color="#FF6600"/>
</linearGradient>
<linearGradient id="paint4_linear_497_3833" x1="95.4113" y1="26.3926" x2="95.4113" y2="39.7204" gradientUnits="userSpaceOnUse">
<stop stop-color="#FF8800"/>
<stop offset="1" stop-color="#FF6600"/>
</linearGradient>
<linearGradient id="paint5_linear_497_3833" x1="36.6154" y1="26.3926" x2="36.6154" y2="39.7204" gradientUnits="userSpaceOnUse">
<stop stop-color="#FF8800"/>
<stop offset="1" stop-color="#FF6600"/>
</linearGradient>
<linearGradient id="paint6_linear_497_3833" x1="112.006" y1="19.3076" x2="112.006" y2="39.7199" gradientUnits="userSpaceOnUse">
<stop stop-color="#FF8800"/>
<stop offset="1" stop-color="#FF6600"/>
</linearGradient>
<linearGradient id="paint7_linear_497_3833" x1="19.2312" y1="3.88477" x2="19.2312" y2="32.2174" gradientUnits="userSpaceOnUse">
<stop stop-color="#FF8800"/>
<stop offset="1" stop-color="#FF6600"/>
</linearGradient>
</defs>
</svg>

<svg xmlns="http://www.w3.org/2000/svg" width="126" height="48" fill="none"><path fill="url(#a)" d="M75.301 26.393c-3.722 0-6.75 2.99-6.75 6.663 0 3.675 3.028 6.664 6.75 6.664s6.75-2.99 6.75-6.663c0-3.675-3.028-6.664-6.75-6.664m0 11.106c-2.481 0-4.5-1.993-4.5-4.443s2.019-4.442 4.5-4.442c2.482 0 4.5 1.993 4.5 4.442 0 2.45-2.019 4.443-4.5 4.443"/><path fill="url(#b)" d="M86.552 19.308h-2.25v19.945h2.25z"/><path fill="url(#c)" d="M67.426 26.342a6.77 6.77 0 0 0-4.5 1.702V26.62h-2.25v12.633h2.25v-6.247c0-2.45 2.019-4.443 4.5-4.443z"/><path fill="url(#d)" d="M45.476 33.057c0-3.745 2.903-6.663 6.566-6.663s6.331 2.608 6.383 7.205H47.804c.21 2.299 2.014 4.029 4.395 4.029a5.46 5.46 0 0 0 3.82-1.55l1.439 1.55c-1.125 1.162-2.983 2.092-5.259 2.092-3.872 0-6.723-2.944-6.723-6.663m2.433-1.395h7.979c-.314-2.117-1.988-3.254-3.977-3.228-1.91 0-3.531 1.265-4.002 3.228"/><path fill="url(#e)" d="M99.77 26.67v1.19a6.77 6.77 0 0 0-4.218-1.467c-3.722 0-6.75 2.99-6.75 6.663 0 3.675 3.028 6.664 6.75 6.664a6.77 6.77 0 0 0 4.219-1.467v1h2.25V26.67zm0 7.918a4.5 4.5 0 0 1-4.218 2.91c-2.481 0-4.5-1.992-4.5-4.442s2.018-4.442 4.5-4.442a4.5 4.5 0 0 1 4.219 2.911c.179.478.281.993.281 1.531 0 .54-.102 1.054-.281 1.532"/><path fill="url(#f)" d="M40.975 26.67v1.19a6.77 6.77 0 0 0-4.219-1.467c-3.722 0-6.75 2.99-6.75 6.663 0 3.675 3.028 6.664 6.75 6.664a6.77 6.77 0 0 0 4.219-1.467v1h2.25V26.67zm0 7.918a4.5 4.5 0 0 1-4.219 2.91c-2.481 0-4.5-1.992-4.5-4.442s2.019-4.442 4.5-4.442a4.5 4.5 0 0 1 4.219 2.911c.179.478.281.993.281 1.531 0 .54-.102 1.054-.281 1.532"/><path fill="url(#g)" d="M105.396 19.308v19.945h2.251v-1a6.77 6.77 0 0 0 4.218 1.467c3.723 0 6.751-2.99 6.751-6.664 0-3.675-3.028-6.664-6.751-6.664-1.595 0-3.062.55-4.218 1.468v-8.552zm1.969 13.748c0-.539.103-1.053.282-1.531a4.5 4.5 0 0 1 4.218-2.912c2.482 0 4.501 1.993 4.501 4.443s-2.019 4.443-4.501 4.443a4.5 4.5 0 0 1-4.218-2.912 4.4 4.4 0 0 1-.282-1.531"/><path fill="url(#h)" d="M33.75 15.024 27.285 3.968a.17.17 0 0 0-.229-.061l-11.2 6.384a.165.165 0 0 0-.08.176l3.63 17.518-.53.591c-.893.994-1.648 1.532-3.085 1.532-1.61 0-2.367-.838-3.564-2.32-1.411-1.745-3.163-3.912-7.365-3.97a.17.17 0 0 0-.172.167v1.779c0 .09.075.163.167.164 3.174.052 4.4 1.57 5.7 3.176 1.179 1.46 2.516 3.113 5.234 3.113 2.347 0 3.637-1.077 4.683-2.24l3.857-4.295 9.4-10.465a.16.16 0 0 0 .02-.193"/><defs><linearGradient id="a" x1="75.301" x2="75.301" y1="26.393" y2="39.72" gradientUnits="userSpaceOnUse"><stop stop-color="#F80"/><stop offset="1" stop-color="#F60"/></linearGradient><linearGradient id="b" x1="85.427" x2="85.427" y1="19.308" y2="39.253" gradientUnits="userSpaceOnUse"><stop stop-color="#F80"/><stop offset="1" stop-color="#F60"/></linearGradient><linearGradient id="c" x1="64.051" x2="64.051" y1="26.342" y2="39.253" gradientUnits="userSpaceOnUse"><stop stop-color="#F80"/><stop offset="1" stop-color="#F60"/></linearGradient><linearGradient id="d" x1="51.95" x2="51.95" y1="26.394" y2="39.72" gradientUnits="userSpaceOnUse"><stop stop-color="#F80"/><stop offset="1" stop-color="#F60"/></linearGradient><linearGradient id="e" x1="95.411" x2="95.411" y1="26.393" y2="39.72" gradientUnits="userSpaceOnUse"><stop stop-color="#F80"/><stop offset="1" stop-color="#F60"/></linearGradient><linearGradient id="f" x1="36.615" x2="36.615" y1="26.393" y2="39.72" gradientUnits="userSpaceOnUse"><stop stop-color="#F80"/><stop offset="1" stop-color="#F60"/></linearGradient><linearGradient id="g" x1="112.006" x2="112.006" y1="19.308" y2="39.72" gradientUnits="userSpaceOnUse"><stop stop-color="#F80"/><stop offset="1" stop-color="#F60"/></linearGradient><linearGradient id="h" x1="19.231" x2="19.231" y1="3.885" y2="32.217" gradientUnits="userSpaceOnUse"><stop stop-color="#F80"/><stop offset="1" stop-color="#F60"/></linearGradient></defs></svg>
